picto/park-rail.svg

<svg class="color-immutable" width="24" height="24" viewBox="0 0 24 24" fill="none" xmlns="http://www.w3.org/2000/svg"><path d="M0 22.5V1.5C0 0.675 0.675 0 1.5 0H22.5C23.325 0 24 0.675 24 1.5V22.5C24 23.325 23.325 24 22.5 24H1.5C0.675 24 0 23.325 0 22.5Z" fill="#2D327D"/><path d="M3 7.508H8.445C9.362 7.508 10.083 7.565 10.609 7.679C11.135 7.793 11.61 7.994 12.035 8.283C13.21 9.071 13.798 10.258 13.798 11.845C13.798 13.254 13.312 14.361 12.34 15.167C11.928 15.512 11.457 15.759 10.928 15.91C10.399 16.061 9.747 16.136 8.972 16.136H5.944V21H3V7.508ZM5.944 10V13.821H8.574C9.355 13.821 9.918 13.683 10.263 13.406C10.688 13.062 10.9 12.554 10.9 11.883C10.9 11.206 10.654 10.702 10.162 10.37C9.804 10.123 9.223 10 8.417 10H5.944Z" fill="white"/><path d="M3.21399 3H4.12099C4.27399 3 4.39399 3.009 4.48199 3.028C4.56999 3.047 4.64899 3.081 4.71999 3.129C4.91499 3.26 5.01299 3.458 5.01299 3.723C5.01299 3.958 4.93199 4.142 4.76999 4.277C4.70199 4.334 4.62299 4.375 4.53499 4.4C4.44699 4.426 4.33799 4.438 4.20899 4.438H3.70399V5.249H3.21399V3ZM3.70399 3.415V4.052H4.14199C4.27199 4.052 4.36599 4.029 4.42299 3.983C4.49499 3.925 4.52999 3.841 4.52999 3.729C4.52999 3.616 4.48899 3.532 4.40699 3.477C4.34799 3.436 4.25099 3.415 4.11699 3.415H3.70399Z" fill="white"/><path d="M5.27197 4.298V3.997H5.89597V3.371H6.19697V3.997H6.82297V4.298H6.19797V4.922H5.89597V4.298H5.27197Z" fill="white"/><path d="M7.19702 3H8.28602C8.50102 3 8.66602 3.034 8.78102 3.102C8.87702 3.157 8.95002 3.231 9.00002 3.323C9.05002 3.415 9.07502 3.519 9.07502 3.635C9.07502 3.766 9.04302 3.881 8.98002 3.978C8.91802 4.076 8.83002 4.145 8.71702 4.187C8.81602 4.212 8.89402 4.267 8.95102 4.353C8.98702 4.407 9.01102 4.464 9.02302 4.524C9.03502 4.584 9.05102 4.72 9.07102 4.932C9.08502 5.088 9.10702 5.185 9.13702 5.223L9.15902 5.249H8.64602C8.62902 5.217 8.61602 5.177 8.60802 5.127C8.60002 5.077 8.59002 4.964 8.57802 4.786C8.56602 4.627 8.52702 4.517 8.46202 4.456C8.39702 4.395 8.28602 4.364 8.13002 4.364H7.68802V5.248H7.19702V3ZM7.68802 3.386V4.004H8.15702C8.30802 4.004 8.41402 3.982 8.47502 3.939C8.55302 3.885 8.59202 3.803 8.59202 3.693C8.59202 3.586 8.55902 3.508 8.49202 3.459C8.42602 3.411 8.32102 3.386 8.17702 3.386H7.68802Z" fill="white"/><path d="M10.957 5.249H10.502C10.483 5.183 10.473 5.12699 10.473 5.08099C10.334 5.22399 10.154 5.295 9.93298 5.295C9.76098 5.295 9.62598 5.255 9.52998 5.175C9.41798 5.083 9.36298 4.95399 9.36298 4.789C9.36298 4.57899 9.45798 4.433 9.64798 4.352C9.72498 4.319 9.86598 4.289 10.073 4.261C10.25 4.237 10.361 4.21499 10.404 4.19299C10.448 4.17099 10.469 4.12699 10.469 4.05999C10.469 3.91299 10.372 3.83999 10.177 3.83999C10.073 3.83999 9.99798 3.85799 9.94998 3.89499C9.90198 3.93199 9.87098 3.99599 9.85498 4.08699H9.43398C9.44698 3.90099 9.51698 3.75999 9.64498 3.66499C9.77298 3.56999 9.95298 3.52299 10.188 3.52299C10.447 3.52299 10.639 3.57599 10.763 3.68099C10.82 3.72999 10.859 3.78299 10.878 3.83899C10.897 3.89499 10.906 3.98499 10.906 4.10699C10.906 4.13299 10.904 4.245 10.901 4.445C10.899 4.647 10.898 4.763 10.898 4.793C10.898 4.915 10.902 5.00399 10.909 5.06099C10.916 5.11899 10.932 5.181 10.957 5.249ZM10.466 4.438C10.409 4.474 10.304 4.50199 10.152 4.52299C10.045 4.53899 9.96898 4.55999 9.92098 4.58599C9.85398 4.62199 9.82098 4.683 9.82098 4.769C9.82098 4.839 9.84298 4.893 9.88698 4.932C9.93198 4.971 9.99298 4.98999 10.072 4.98999C10.203 4.98999 10.309 4.944 10.39 4.852C10.419 4.82 10.438 4.78699 10.449 4.75299C10.46 4.71899 10.465 4.673 10.465 4.617V4.438H10.466Z" fill="white"/><path d="M11.702 3V3.401H11.256V3H11.702ZM11.702 3.572V5.249H11.256V3.572H11.702Z" fill="white"/><path d="M12.515 3V5.249H12.069V3H12.515Z" fill="white"/></svg>

<svg class="color-immutable" width="24" height="24" viewBox="0 0 24 24" fill="none" xmlns="http://www.w3.org/2000/svg"><g clip-path="url(#a)"><path d="M0 22.5v-21C0 .675.675 0 1.5 0h21c.825 0 1.5.675 1.5 1.5v21c0 .825-.675 1.5-1.5 1.5h-21C.675 24 0 23.325 0 22.5Z" fill="#2D327D"/><path d="M3 7.508h5.445c.917 0 1.638.057 2.164.171a4.024 4.024 0 0 1 1.426.604c1.175.788 1.763 1.975 1.763 3.562 0 1.409-.486 2.516-1.458 3.322a3.794 3.794 0 0 1-1.412.743c-.529.151-1.181.226-1.956.226H5.944V21H3V7.508ZM5.944 10v3.821h2.63c.781 0 1.344-.138 1.689-.415.425-.344.637-.852.637-1.523 0-.677-.246-1.181-.738-1.513-.358-.247-.939-.37-1.745-.37H5.944ZM3.214 3h.907c.153 0 .273.009.361.028a.675.675 0 0 1 .238.101c.195.131.293.329.293.594a.682.682 0 0 1-.243.554.63.63 0 0 1-.235.123 1.172 1.172 0 0 1-.326.038h-.505v.811h-.49V3Zm.49.415v.637h.438c.13 0 .224-.023.281-.069.072-.058.107-.142.107-.254 0-.113-.041-.197-.123-.252-.059-.041-.156-.062-.29-.062h-.413ZM5.272 4.298v-.301h.624v-.626h.301v.626h.626v.301h-.625v.624h-.302v-.624h-.624ZM7.197 3h1.089c.215 0 .38.034.495.102A.56.56 0 0 1 9 3.323c.05.092.075.196.075.312a.617.617 0 0 1-.095.343.512.512 0 0 1-.263.209c.099.025.177.08.234.166.036.054.06.111.072.171.012.06.028.196.048.408.014.156.036.253.066.291l.022.026h-.513a.39.39 0 0 1-.038-.122 4.978 4.978 0 0 1-.03-.341c-.012-.159-.051-.269-.116-.33s-.176-.092-.332-.092h-.442v.884h-.491V3Zm.491.386v.618h.469c.151 0 .257-.022.318-.065.078-.054.117-.136.117-.246 0-.107-.033-.185-.1-.234-.066-.048-.171-.073-.315-.073h-.489ZM10.957 5.249h-.455a.629.629 0 0 1-.029-.168.72.72 0 0 1-.54.214c-.172 0-.307-.04-.403-.12a.472.472 0 0 1-.167-.386c0-.21.095-.356.285-.437.077-.033.218-.063.425-.091.177-.024.288-.046.331-.068.044-.022.065-.066.065-.133 0-.147-.097-.22-.292-.22-.104 0-.179.018-.227.055-.048.037-.079.101-.095.192h-.421a.543.543 0 0 1 .211-.422c.128-.095.308-.142.543-.142.259 0 .451.053.575.158a.37.37 0 0 1 .115.158.915.915 0 0 1 .028.268l-.005.338-.003.348c0 .122.004.211.011.268.007.058.023.12.048.188Zm-.491-.811c-.057.036-.162.064-.314.085a.742.742 0 0 0-.231.063c-.067.036-.1.097-.1.183 0 .07.022.124.066.163a.272.272 0 0 0 .185.058.403.403 0 0 0 .318-.138.271.271 0 0 0 .059-.099.46.46 0 0 0 .016-.136v-.179h.001ZM11.702 3v.401h-.446V3h.446Zm0 .572v1.677h-.446V3.572h.446ZM12.515 3v2.249h-.446V3h.446Z" fill="#fff"/></g><defs><clipPath id="a"><path fill="#fff" d="M0 0h24v24H0z"/></clipPath></defs></svg>
